ui_kit/lib/assets/icons/maximize.svg

<svg width="20" height="20" viewBox="0 0 20 20" fill="none" xmlns="http://www.w3.org/2000/svg">
<path fill-rule="evenodd" clip-rule="evenodd" d="M16.4715 3.52861C16.5502 3.60733 16.6051 3.70084 16.6362 3.8002L16.6606 3.9096C16.6646 3.93917 16.6667 3.96935 16.6667 4.00001V4.00768V8.00001C16.6667 8.3682 16.3682 8.66668 16 8.66668C15.6318 8.66668 15.3334 8.3682 15.3334 8.00001V5.60953L11.8048 9.13808C11.5445 9.39843 11.1223 9.39843 10.862 9.13808C10.6016 8.87773 10.6016 8.45562 10.862 8.19527L14.3906 4.66668H12C11.6318 4.66668 11.3334 4.3682 11.3334 4.00001C11.3334 3.63182 11.6318 3.33334 12 3.33334H15.9999H16L16.0062 3.33337C16.0843 3.33409 16.1623 3.34844 16.2364 3.37645C16.3221 3.40887 16.4025 3.45959 16.4715 3.52861ZM4.66671 12.0001C4.66671 11.6319 4.36823 11.3334 4.00004 11.3334C3.63185 11.3334 3.33337 11.6319 3.33337 12.0001V15.9999C3.33337 16 3.33337 16 3.33337 16.0001C3.33337 16.1671 3.39477 16.3197 3.49623 16.4367C3.55676 16.5065 3.63155 16.5636 3.71606 16.6034C3.80221 16.644 3.89848 16.6667 4.00004 16.6667H8.00004C8.36823 16.6667 8.66671 16.3683 8.66671 16.0001C8.66671 15.6319 8.36823 15.3334 8.00004 15.3334H5.60949L9.13811 11.8048C9.39846 11.5444 9.39846 11.1223 9.13811 10.862C8.87776 10.6016 8.45565 10.6016 8.1953 10.862L4.66671 14.3906V12.0001Z" fill="#F5F9FF" fill-opacity="0.95"/>
</svg>

<svg xmlns="http://www.w3.org/2000/svg" width="20" height="20" fill="none" viewBox="0 0 20 20"><path fill="#F5F9FF" fill-opacity=".95" fill-rule="evenodd" d="M16.471 3.529a.664.664 0 0 1 .165.271l.025.11a.68.68 0 0 1 .006.09v4a.667.667 0 0 1-1.334 0V5.61l-3.528 3.528a.667.667 0 1 1-.943-.943l3.529-3.528H12a.667.667 0 0 1 0-1.334h4.006a.669.669 0 0 1 .465.196ZM4.667 12a.667.667 0 1 0-1.334 0v4a.664.664 0 0 0 .667.667h4a.667.667 0 1 0 0-1.334H5.61l3.528-3.528a.667.667 0 1 0-.943-.943l-3.528 3.529V12Z" clip-rule="evenodd"/></svg>
